X: 1
T: Eshes Chayil
M: C
L: 1/16
K: G=B_e_A
|: "G"G2G2 B2BG "Cm"d2 c4 c2 | "G"B2B2 "Fm"AGF2 "G"B2B2 "Fm"AGF2 \
|  "G"G2G2 B2BG "Cm"d2 c4 c2 | "G"B2B2 "Fm"AGF2 "G"G8 :|
[| "Cm"e2ee eeee "G"f2d2- d3G | "G"d2dd dddd "Cm"dec2- c3G \
|  "Ab"c2cc d3c "G"cB3- B2BB | "Cm"c2G2 "Fm"A2"G"B2 "Cm"c2"G"B2"Cm"c2"G"d2 |
[| "Cm"e2ee eeee "G"f2d2- d3G | "G"d4 d3d "Cm"dec2- c4 \
|  "Fm"c2cc d3c "G"c2 B4 BB | "G"B2G2 "Fm"A2F2 "G"G8 |]
